X: 160
T: Shepherd's Holiday
M:4/4
L:1/8
Q:160
S:Playford
O:Manuscript
A:English
K:Dm
d|d>ed g3|f3 f e2| d>ed cdB| AGA B/2A/2B/2c/2d/2e/2|f>ed cdB| B>cB B3:|
|: d|d>ef dcB|f2 d f2 F||B>cd BAG|d2 G d3|G>AB GFE|B3 c>de/2f/2|d>cB/2A/2 B>ag|G3 G3:|

